X:1
T:Metropolitan, CM
T:Metropolitan, CM
T:John Turner Layton, Sr., 1898
T:Public Domain Courtesy of the Cyber Hymnal™
C:John Turner Layton, Sr., 1898
Z:Public Domain
Z:Courtesy of the Cyber Hymnal™
%%score ( 1 2 ) ( 3 4 )
L:1/8
Q:1/4=135
M:3/4
K:Ab
V:1 treble 
V:2 treble 
V:3 bass 
V:4 bass 
V:1
"^Andante" E2 | [Ec]4 [Ec]2 | [Ed]4 [Ec]2 | [Ec]4!mf! [DB]2 | !fermata![CA]4 [=DA]2 | %5
 [=DA]4 [DA]2 | [=Dc]4 [DB]2 | !fermata![EB]4 E2 |!<(! [Ec]4 [Ec]2!<)! | [Ed]4 [Ed]2 | %10
 [Ee]4 [_Ge]2 |!ff! [Ff]4 [FB]2 | [Ec]4 [Ec]2 |!p! [Dc]4 [DB]2 | [CA]4 |] %15
V:2
 E2 | x6 | x6 | x6 | x6 | x6 | x6 | x4 E2 | x6 | x6 | x6 | x6 | x6 | x6 | x4 |] %15
V:3
 E,2 | [A,,A,]4 [A,,A,]2 | [B,,G,]4 [A,,A,]2 | [E,A,]4 [=E,G,]2 | !fermata![F,A,]4 [B,,F,]2 | %5
 [B,,F,]4 [B,,F,]2 | [B,,F,]4 [B,,A,]2 | !fermata![E,G,]4 [E,G,]2 | [A,,A,]4 [A,,A,]2 | %9
 [B,,A,]4 [B,,A,]2 | [C,A,]4 [C,A,]2 | !fermata![D,A,]4 [=D,A,]2 | [E,A,]4 [E,A,]2 | %13
 [E,,E,G,]4 [E,,E,G,]2 | [A,,A,]4 |] %15
V:4
 E,2 | x6 | x6 | x6 | x6 | x6 | x6 | x6 | x6 | x6 | x6 | x6 | x6 | x6 | x4 |] %15

